assets/img/braze_icons/star-05.svg

<svg fill="none" height="24" viewBox="0 0 24 24" width="24" xmlns="http://www.w3.org/2000/svg"><path d="m12.9701 1.75746c-.1113-.44516-.5112-.75746-.9701-.75746s-.8589.3123-.9701.75746l-1.30154 5.20599c-.271 1.08402-.36227 1.39792-.51759 1.64065-.15596.24373-.36294.45071-.60667.60667-.24273.15532-.55663.24659-1.64064.51759l-5.206 1.30154c-.44516.1112-.75746.5112-.75746.9701s.3123.8589.75746.9701l5.20599 1.3015c1.08402.271 1.39792.3623 1.64065.5176.24373.156.45071.363.60667.6067.15532.2427.24659.5566.51759 1.6406l1.30154 5.206c.1113.4452.5112.7575.9701.7575s.8589-.3123.9701-.7575l1.3015-5.206c.271-1.084.3623-1.3979.5176-1.6406.156-.2437.363-.4507.6067-.6067.2427-.1553.5566-.2466 1.6406-.5176l5.206-1.3015c.4452-.1112.7575-.5112.7575-.9701s-.3123-.8589-.7575-.9701l-5.206-1.30154c-1.084-.271-1.3979-.36227-1.6406-.51759-.2437-.15596-.4507-.36294-.6067-.60667-.1553-.24273-.2466-.55663-.5176-1.64064z" fill="#801ed7"/></svg>

<svg width="24" height="24" viewBox="0 0 24 24" fill="none" xmlns="http://www.w3.org/2000/svg">
<path d="M12.9701 1.75746C12.8588 1.3123 12.4589 1 12 1C11.5411 1 11.1411 1.3123 11.0299 1.75746L9.72836 6.96345C9.45736 8.04747 9.36609 8.36137 9.21077 8.6041C9.05481 8.84783 8.84783 9.05481 8.6041 9.21077C8.36137 9.36609 8.04747 9.45736 6.96346 9.72836L1.75746 11.0299C1.3123 11.1411 1 11.5411 1 12C1 12.4589 1.3123 12.8589 1.75746 12.9701L6.96345 14.2716C8.04747 14.5426 8.36137 14.6339 8.6041 14.7892C8.84783 14.9452 9.05481 15.1522 9.21077 15.3959C9.36609 15.6386 9.45736 15.9525 9.72836 17.0365L11.0299 22.2425C11.1412 22.6877 11.5411 23 12 23C12.4589 23 12.8589 22.6877 12.9701 22.2425L14.2716 17.0365C14.5426 15.9525 14.6339 15.6386 14.7892 15.3959C14.9452 15.1522 15.1522 14.9452 15.3959 14.7892C15.6386 14.6339 15.9525 14.5426 17.0365 14.2716L22.2425 12.9701C22.6877 12.8589 23 12.4589 23 12C23 11.5411 22.6877 11.1411 22.2425 11.0299L17.0365 9.72836C15.9525 9.45736 15.6386 9.36609 15.3959 9.21077C15.1522 9.05481 14.9452 8.84783 14.7892 8.6041C14.6339 8.36137 14.5426 8.04747 14.2716 6.96346L12.9701 1.75746Z" fill="#801ED7"/>
</svg>
